src/topics/icons/tsuru.svg

<svg height="193" preserveAspectRatio="xMidYMid" viewBox="0 0 256 193" width="256" xmlns="http://www.w3.org/2000/svg"><path d="m225.37799 32.2551834c-.408293-.4082934-.816586-.4082934-1.22488 0l-105.339713 104.1148326c-.408293.408293-.408293.816587 0 1.22488l20.414673 25.722488-3.674641 28.580543c0 .408293 0 .816587.408293.816587h.408294c.408293 0 .408293 0 .816587-.408294l88.599681-159.2344497c.408293 0 0-.8165869-.408294-.8165869zm30.62201 36.7464115-20.822967-36.7464115c0-.4082934-.408293-.4082934-.816586-.4082934-.408294 0-.408294 0-.816587.4082934l-13.881978 25.3141946v.8165869c0 .4082935.408293.4082935.408293.4082935l34.704945 11.0239234h.408293c.408294 0 .408294 0 .816587-.4082934zm-124.121212 95.9489631v-.816587l-130.65390762-164.133971s-1.22488038.40829346-1.22488038.81658692l13.4736842 137.18660308-9.79904305 54.711324h124.12121185c.408294.408293 4.082935-27.763956 4.082935-27.763956z" fill="#3d9"/></svg>

<?xml version="1.0" encoding="UTF-8" standalone="no"?>
<svg width="256px" height="193px" viewBox="0 0 256 193" version="1.1" xmlns="http://www.w3.org/2000/svg" xmlns:xlink="http://www.w3.org/1999/xlink" preserveAspectRatio="xMidYMid">
    <g>
        <path d="M225.37799,32.2551834 C224.969697,31.84689 224.561404,31.84689 224.15311,32.2551834 L118.813397,136.370016 C118.405104,136.778309 118.405104,137.186603 118.813397,137.594896 L139.22807,163.317384 L135.553429,191.897927 C135.553429,192.30622 135.553429,192.714514 135.961722,192.714514 L136.370016,192.714514 C136.778309,192.714514 136.778309,192.714514 137.186603,192.30622 L225.786284,33.0717703 C226.194577,33.0717703 225.786284,32.2551834 225.37799,32.2551834 L225.37799,32.2551834 Z M256,69.0015949 L235.177033,32.2551834 C235.177033,31.84689 234.76874,31.84689 234.360447,31.84689 C233.952153,31.84689 233.952153,31.84689 233.54386,32.2551834 L219.661882,57.569378 L219.661882,58.3859649 C219.661882,58.7942584 220.070175,58.7942584 220.070175,58.7942584 L254.77512,69.8181818 L255.183413,69.8181818 C255.591707,69.8181818 255.591707,69.8181818 256,69.4098884 L256,69.0015949 L256,69.0015949 Z M131.878788,164.950558 L131.878788,164.133971 L1.22488038,0 C1.22488038,0 -1.42108547e-14,0.408293461 -1.42108547e-14,0.816586922 L13.4736842,138.00319 L3.67464115,192.714514 L127.795853,192.714514 C128.204147,193.122807 131.878788,164.950558 131.878788,164.950558 Z" fill="#33DD99"></path>
    </g>
</svg>
